elementary-icon-theme/elementary-monochrome/status/22/gpm-battery-040-charging.svg

<?xml version="1.0" encoding="UTF-8" standalone="no"?>
<!-- Created with Inkscape (http://www.inkscape.org/) -->

<svg
   xmlns:svg="http://www.w3.org/2000/svg"
   xmlns="http://www.w3.org/2000/svg"
   xmlns:xlink="http://www.w3.org/1999/xlink"
   version="1.1"
   width="22"
   height="22"
   id="svg3887">
  <defs
     id="defs3889">
    <linearGradient
       id="linearGradient3587-6-5-3-4-7">
      <stop
         id="stop3589-9-2-2-8-2"
         style="stop-color:#000000;stop-opacity:1"
         offset="0" />
      <stop
         id="stop3591-7-4-73-1-8"
         style="stop-color:#363636;stop-opacity:1"
         offset="1" />
    </linearGradient>
    <linearGradient
       id="linearGradient3587-6-5-3-2-7">
      <stop
         id="stop3589-9-2-2-2-7"
         style="stop-color:#000000;stop-opacity:1"
         offset="0" />
      <stop
         id="stop3591-7-4-73-6-9"
         style="stop-color:#363636;stop-opacity:1"
         offset="1" />
    </linearGradient>
    <linearGradient
       id="linearGradient3587-6-5-3-2-7-2">
      <stop
         id="stop3589-9-2-2-2-7-2"
         style="stop-color:#000000;stop-opacity:1"
         offset="0" />
      <stop
         id="stop3591-7-4-73-6-9-9"
         style="stop-color:#363636;stop-opacity:1"
         offset="1" />
    </linearGradient>
    <linearGradient
       x1="51.780437"
       y1="7.2575765"
       x2="51.780437"
       y2="31.112288"
       id="linearGradient2836"
       xlink:href="#linearGradient3587-6-5-3-4-7"
       gradientUnits="userSpaceOnUse"
       gradientTransform="matrix(0.4101105,0,0,0.5452071,-9.798734,1.0431177)" />
    <linearGradient
       x1="12"
       y1="1.9895233"
       x2="12"
       y2="21"
       id="linearGradient2843"
       xlink:href="#linearGradient3587-6-5-3-2-7"
       gradientUnits="userSpaceOnUse"
       gradientTransform="translate(-1,-1.0000003)" />
    <linearGradient
       x1="51.780437"
       y1="7.2575765"
       x2="51.780437"
       y2="31.112288"
       id="linearGradient2852"
       xlink:href="#linearGradient3587-6-5-3-2-7-2"
       gradientUnits="userSpaceOnUse"
       gradientTransform="matrix(0.4101105,0,0,0.20969504,-9.798735,11.478122)" />
  </defs>
  <path
     d="m 6.5,19.5 0,-14.0000003 c 0,-0.554 0.446,-1 1,-1 l 7,0 c 0.554,0 1,0.446 1,1 L 15.5,19.5 c 0,0.554 -0.446,1 -1,1 l -7,0 c -0.554,0 -1,-0.446 -1,-1 z M 9.50264,4.3815487 c 7e-4,-0.32804 0.00153,-0.656076 0.0025,-0.984108 0.040761,-0.597825 0.6496,-0.976733 1.212198,-0.897474 0.532922,0.023433 1.176896,-0.124121 1.554865,0.363195 0.350761,0.438478 0.191405,1.0212 0.227797,1.537207"
     id="path3208-6"
     style="opacity:0.6;fill:none;stroke:#ffffff;stroke-width:1;stroke-linecap:round;stroke-linejoin:miter;stroke-miterlimit:4;stroke-opacity:1;stroke-dashoffset:0;marker:none;visibility:visible;display:inline;overflow:visible;enable-background:accumulate" />
  <rect
     width="14.5"
     height="7.5"
     rx="0.25"
     ry="0.25"
     x="-18.75"
     y="7.25"
     transform="matrix(0,-1,1,0,0,0)"
     id="rect3236-1"
     style="opacity:0.2;fill:none;stroke:#000000;stroke-width:0.5;stroke-linecap:round;stroke-linejoin:miter;stroke-miterlimit:4;stroke-opacity:1;stroke-dasharray:none;stroke-dashoffset:0;marker:none;visibility:visible;display:inline;overflow:visible;enable-background:accumulate" />
  <path
     d="m 6.5,18.5 0,-14.0000003 c 0,-0.554 0.446,-1 1,-1 l 7,0 c 0.554,0 1,0.446 1,1 L 15.5,18.5 c 0,0.554 -0.446,1 -1,1 l -7,0 c -0.554,0 -1,-0.446 -1,-1 z M 9.50264,3.3815487 c 7e-4,-0.32804 0.00153,-0.656076 0.0025,-0.984108 0.040761,-0.597825 0.6496,-0.976733 1.212198,-0.897474 0.532922,0.023433 1.176896,-0.124121 1.554865,0.363195 0.350761,0.438478 0.191405,1.0212 0.227797,1.537207"
     id="rect2442-9"
     style="opacity:0.7;fill:none;stroke:url(#linearGradient2843);stroke-width:1;stroke-linecap:round;stroke-linejoin:miter;stroke-miterlimit:4;stroke-opacity:1;stroke-dashoffset:0;marker:none;visibility:visible;display:inline;overflow:visible;enable-background:accumulate" />
  <rect
     width="6"
     height="5"
     rx="0.25"
     ry="0"
     x="8"
     y="14"
     id="rect3965-9"
     style="opacity:0.3;color:#000000;fill:#ffffff;fill-opacity:1;fill-rule:nonzero;stroke:none;stroke-width:1;marker:none;visibility:visible;display:inline;overflow:visible;enable-background:accumulate" />
  <rect
     width="6"
     height="5"
     rx="0.25"
     ry="0"
     x="8"
     y="13"
     id="rect3965"
     style="opacity:0.35;color:#000000;fill:url(#linearGradient2852);fill-opacity:1;fill-rule:nonzero;stroke:none;stroke-width:1;marker:none;visibility:visible;display:inline;overflow:visible;enable-background:accumulate" />
  <path
     d="m 14.055385,5.972 -7.0000002,6.999999 4.0000002,0 -3.0000002,6.000001 7.0000002,-8.000001 -3,0 2,-4.999999 z"
     id="path3172-0"
     style="opacity:0.4;fill:#ffffff;fill-opacity:1;fill-rule:nonzero;stroke:none;stroke-width:1;marker:none;visibility:visible;display:inline;overflow:visible;enable-background:accumulate" />
  <path
     d="m 14.055385,4.972344 -7.0000002,6.999999 4.0000002,0 -3.0000002,6.000001 7.0000002,-8.000001 -3,0 2,-4.999999 z"
     id="path3172"
     style="opacity:0.7;fill:url(#linearGradient2836);fill-opacity:1;fill-rule:nonzero;stroke:none;stroke-width:1;marker:none;visibility:visible;display:inline;overflow:visible;enable-background:accumulate" />
</svg>

<?xml version="1.0" encoding="UTF-8" standalone="no"?>
<!-- Created with Inkscape (http://www.inkscape.org/) -->
<svg
   xmlns:dc="http://purl.org/dc/elements/1.1/"
   xmlns:cc="http://creativecommons.org/ns#"
   xmlns:rdf="http://www.w3.org/1999/02/22-rdf-syntax-ns#"
   xmlns:svg="http://www.w3.org/2000/svg"
   xmlns="http://www.w3.org/2000/svg"
   xmlns:xlink="http://www.w3.org/1999/xlink"
   xmlns:sodipodi="http://sodipodi.sourceforge.net/DTD/sodipodi-0.dtd"
   xmlns:inkscape="http://www.inkscape.org/namespaces/inkscape"
   version="1.0"
   width="22"
   height="22"
   id="svg3199"
   sodipodi:version="0.32"
   inkscape:version="0.46"
   sodipodi:docname="battery-040-charging.svg"
   inkscape:output_extension="org.inkscape.output.svg.inkscape">
  <metadata
     id="metadata19">
    <rdf:RDF>
      <cc:Work
         rdf:about="">
        <dc:format>image/svg+xml</dc:format>
        <dc:type
           rdf:resource="http://purl.org/dc/dcmitype/StillImage" />
      </cc:Work>
    </rdf:RDF>
  </metadata>
  <sodipodi:namedview
     inkscape:window-height="706"
     inkscape:window-width="640"
     inkscape:pageshadow="2"
     inkscape:pageopacity="0.0"
     guidetolerance="10.0"
     gridtolerance="10.0"
     objecttolerance="10.0"
     borderopacity="1.0"
     bordercolor="#666666"
     pagecolor="#ffffff"
     id="base"
     showgrid="false"
     inkscape:zoom="10.375"
     inkscape:cx="4.5301205"
     inkscape:cy="12"
     inkscape:window-x="399"
     inkscape:window-y="51"
     inkscape:current-layer="svg3199" />
  <defs
     id="defs3201">
    <inkscape:perspective
       sodipodi:type="inkscape:persp3d"
       inkscape:vp_x="0 : 12 : 1"
       inkscape:vp_y="0 : 1000 : 0"
       inkscape:vp_z="24 : 12 : 1"
       inkscape:persp3d-origin="12 : 8 : 1"
       id="perspective21" />
    <linearGradient
       x1="51.780437"
       y1="7.2575765"
       x2="51.780437"
       y2="31.112288"
       id="linearGradient2395"
       xlink:href="#linearGradient3587-6-5-3"
       gradientUnits="userSpaceOnUse"
       gradientTransform="matrix(0.4101105,0,0,0.2096951,-8.7987346,12.478122)" />
    <linearGradient
       x1="12"
       y1="1.9895233"
       x2="12"
       y2="21"
       id="linearGradient2392"
       xlink:href="#linearGradient3587-6-5-3"
       gradientUnits="userSpaceOnUse" />
    <linearGradient
       id="linearGradient3587-6-5-3">
      <stop
         id="stop3589-9-2-2"
         style="stop-color:#000000;stop-opacity:1"
         offset="0" />
      <stop
         id="stop3591-7-4-73"
         style="stop-color:#363636;stop-opacity:1"
         offset="1" />
    </linearGradient>
    <linearGradient
       x1="51.780437"
       y1="7.2575765"
       x2="51.780437"
       y2="31.112288"
       id="linearGradient3184"
       xlink:href="#linearGradient3587-6-5-3"
       gradientUnits="userSpaceOnUse"
       gradientTransform="matrix(0.4101105,0,0,0.5452071,-8.7987346,2.0431177)" />
    <linearGradient
       inkscape:collect="always"
       xlink:href="#linearGradient3587-6-5-3"
       id="linearGradient2396"
       gradientUnits="userSpaceOnUse"
       gradientTransform="matrix(0.4101105,0,0,0.5452071,-9.7987346,1.0431177)"
       x1="51.780437"
       y1="7.2575765"
       x2="51.780437"
       y2="31.112288" />
    <linearGradient
       inkscape:collect="always"
       xlink:href="#linearGradient3587-6-5-3"
       id="linearGradient2399"
       gradientUnits="userSpaceOnUse"
       x1="12"
       y1="1.9895233"
       x2="12"
       y2="21"
       gradientTransform="translate(-1,-1)" />
    <linearGradient
       inkscape:collect="always"
       xlink:href="#linearGradient3587-6-5-3"
       id="linearGradient2402"
       gradientUnits="userSpaceOnUse"
       gradientTransform="matrix(0.4101105,0,0,0.2096951,-9.7987346,11.478122)"
       x1="51.780437"
       y1="7.2575765"
       x2="51.780437"
       y2="31.112288" />
  </defs>
  <rect
     style="opacity:0.6;fill:#ffffff;fill-opacity:1;fill-rule:nonzero;stroke:none;stroke-width:1;stroke-linecap:butt;stroke-linejoin:miter;marker:none;marker-start:none;marker-mid:none;marker-end:none;stroke-miterlimit:4;stroke-dasharray:none;stroke-dashoffset:0;stroke-opacity:1;visibility:visible;display:inline;overflow:visible;enable-background:accumulate"
     id="rect3206"
     y="14"
     x="8.0500002"
     ry="0.49999994"
     rx="0.5"
     height="5"
     width="6" />
  <rect
     style="opacity:0.3;fill:none;fill-opacity:1;fill-rule:nonzero;stroke:#000000;stroke-width:0.5;stroke-linecap:round;stroke-linejoin:miter;marker:none;marker-start:none;marker-mid:none;marker-end:none;stroke-miterlimit:4;stroke-dasharray:none;stroke-dashoffset:0;stroke-opacity:1;visibility:visible;display:inline;overflow:visible;enable-background:accumulate"
     id="rect3236"
     transform="matrix(0,-1,1,0,0,0)"
     y="7.25"
     x="-18.75"
     ry="0.25"
     rx="0.25"
     height="7.5"
     width="14.5" />
  <path
     style="opacity:0.3;fill:#000000;fill-opacity:1;fill-rule:evenodd;stroke:none"
     id="path3160"
     d="M 6.5866347,12.136611 C 6.6585407,12.331442 6.8478849,12.457671 7.0553847,12.449111 L 10.274135,12.449111 L 7.6178847,17.761611 C 7.4711841,17.985977 7.534144,18.286785 7.7585097,18.433486 C 7.9828754,18.580187 8.2836841,18.517227 8.4303847,18.292861 L 15.430385,10.292861 C 15.547737,10.14908 15.571391,9.950418 15.491079,9.783103 C 15.410768,9.615787 15.24097,9.509982 15.055385,9.511611 L 12.742885,9.511611 L 14.492885,5.167861 C 14.591842,4.955161 14.522052,4.702089 14.328062,4.570175 C 14.134071,4.438261 13.873063,4.466392 13.711635,4.636611 L 6.7116347,11.636611 C 6.5761307,11.764701 6.5273497,11.959824 6.5866347,12.136611 z" />
  <path
     style="opacity:0.6;fill:none;fill-opacity:1;fill-rule:nonzero;stroke:#ffffff;stroke-width:1;stroke-linecap:round;stroke-linejoin:miter;marker:none;marker-start:none;marker-mid:none;marker-end:none;stroke-miterlimit:4;stroke-dashoffset:0;stroke-opacity:1;visibility:visible;display:inline;overflow:visible;enable-background:accumulate"
     id="path3208"
     d="M 6.5,19.5 L 6.5,5.5 C 6.5,4.946 6.946,4.5 7.5,4.5 L 14.5,4.5 C 15.054,4.5 15.5,4.946 15.5,5.5 L 15.5,19.5 C 15.5,20.054 15.054,20.5 14.5,20.5 L 7.5,20.5 C 6.946,20.5 6.5,20.054 6.5,19.5 z M 9.50264,4.381549 C 9.50334,4.053509 9.504168,3.725473 9.505144,3.397441 C 9.545901,2.799616 10.15474,2.420708 10.717338,2.499967 C 11.25026,2.5234 11.894234,2.375846 12.272203,2.863162 C 12.622964,3.30164 12.463608,3.884362 12.5,4.400369" />
  <path
     style="opacity:0.4;fill:url(#linearGradient2402);fill-opacity:1;fill-rule:nonzero;stroke:none;stroke-width:1;stroke-linecap:butt;stroke-linejoin:miter;marker:none;marker-start:none;marker-mid:none;marker-end:none;stroke-miterlimit:4;stroke-dasharray:none;stroke-dashoffset:0;stroke-opacity:1;visibility:visible;display:inline;overflow:visible;enable-background:accumulate"
     id="rect3728"
     d="M 8.0500002,13 C 10.05,13 12.05,13 14.05,13 C 14.05,14.666666 14.05,16.333334 14.05,18 C 12.05,18 10.05,18 8.0500002,18 C 8.0500002,16.333334 8.0500002,14.666666 8.0500002,13 z" />
  <path
     style="opacity:0.7;fill:none;fill-opacity:1;fill-rule:nonzero;stroke:url(#linearGradient2399);stroke-width:1;stroke-linecap:round;stroke-linejoin:miter;marker:none;marker-start:none;marker-mid:none;marker-end:none;stroke-miterlimit:4;stroke-dashoffset:0;stroke-opacity:1;visibility:visible;display:inline;overflow:visible;enable-background:accumulate"
     id="rect2442"
     d="M 6.5,18.5 L 6.5,4.5 C 6.5,3.946 6.946,3.5 7.5,3.5 L 14.5,3.5 C 15.054,3.5 15.5,3.946 15.5,4.5 L 15.5,18.5 C 15.5,19.054 15.054,19.5 14.5,19.5 L 7.5,19.5 C 6.946,19.5 6.5,19.054 6.5,18.5 z M 9.50264,3.381549 C 9.50334,3.053509 9.504168,2.725473 9.505144,2.397441 C 9.545901,1.799616 10.15474,1.420708 10.717338,1.499967 C 11.25026,1.5234 11.894234,1.375846 12.272203,1.863162 C 12.622964,2.30164 12.463608,2.884362 12.5,3.400369" />
  <path
     style="opacity:0.7;fill:url(#linearGradient2396);fill-opacity:1;fill-rule:nonzero;stroke:none;stroke-width:1;stroke-linecap:butt;stroke-linejoin:miter;marker:none;marker-start:none;marker-mid:none;marker-end:none;stroke-miterlimit:4;stroke-dasharray:none;stroke-dashoffset:0;stroke-opacity:1;visibility:visible;display:inline;overflow:visible;enable-background:accumulate"
     id="path3172"
     d="M 14.055385,4.972344 L 7.0553848,11.972343 L 11.055385,11.972343 L 8.0553848,17.972344 L 15.055385,9.972343 L 12.055385,9.972343 L 14.055385,4.972344 z" />
</svg>
